icons/op-reminder-24.svg

<svg width="24" height="24" viewBox="0 0 24 24" fill="none" xmlns="http://www.w3.org/2000/svg">
<path d="M12 12.6299L13.5145 13.8456C13.7353 14.0364 13.7669 14.3545 13.6091 14.6089C13.4829 14.7361 13.3252 14.7997 13.199 14.7997C13.0728 14.7997 12.9466 14.7679 12.8519 14.6725L11.1481 13.3049C10.9809 13.1604 10.9041 12.943 10.9588 12.7356V11.81C10.9588 11.5237 11.1797 11.3011 11.4636 11.3011C11.7791 11.3011 12 11.5237 12 11.81V12.6299Z" fill="black"/>
<path fill-rule="evenodd" clip-rule="evenodd" d="M5.50033 13.114C5.50033 9.58357 8.30844 6.72104 11.8107 6.72104C15.3129 6.72104 18.121 9.58357 18.121 13.114C18.121 14.8417 17.4363 16.4143 16.3213 17.5637C16.3327 17.5747 16.3436 17.5863 16.3541 17.5987L17.8686 19.0935C18.0579 19.3162 18.0579 19.6342 17.8686 19.8569C17.8134 19.9046 17.7523 19.9404 17.6882 19.9642C17.4959 20.0358 17.277 20 17.1113 19.8569L15.6284 18.362C15.5933 18.3266 15.5638 18.2881 15.5399 18.2474C14.4973 19.0187 13.2093 19.4752 11.8107 19.4752C10.5165 19.4752 9.31706 19.0843 8.31911 18.4149L6.88861 19.8569C6.66775 20.0477 6.35223 20.0477 6.13137 19.8569C5.94206 19.6342 5.94206 19.3162 6.13137 19.0935L7.49058 17.7519C6.26361 16.5892 5.50033 14.9381 5.50033 13.114ZM16.0071 13.114C16.0071 10.7604 14.1455 8.85204 11.8107 8.85204C9.47586 8.85204 7.58275 10.7604 7.58275 13.114C7.58275 15.4359 9.47586 17.3442 11.8107 17.3442C14.1455 17.3442 16.0071 15.4359 16.0071 13.114Z" fill="black"/>
<path d="M18.9414 5.06713C20.1719 6.30756 20.3297 8.21592 19.4147 9.64718L14.3979 4.59005C15.8178 3.66768 17.7109 3.8267 18.9414 5.06713Z" fill="black"/>
<path d="M5.05861 5.06713C3.82809 6.30756 3.67033 8.21592 4.58533 9.64718L9.60206 4.59005C8.18223 3.66768 6.28913 3.8267 5.05861 5.06713Z" fill="black"/>
</svg>

<svg xmlns="http://www.w3.org/2000/svg" width="24" height="24" viewBox="0 0 24 24"><path d="m12 12.63 1.514 1.216c.221.19.253.508.095.763a.61.61 0 0 1-.41.191.471.471 0 0 1-.347-.128l-1.704-1.367a.564.564 0 0 1-.189-.569v-.926a.5.5 0 0 1 .505-.509c.315 0 .536.223.536.509v.82Z"/><path d="M5.5 13.114c0-3.53 2.808-6.393 6.311-6.393 3.502 0 6.31 2.863 6.31 6.393 0 1.728-.685 3.3-1.8 4.45a.273.273 0 0 1 .033.035l1.515 1.495a.584.584 0 0 1 0 .763.571.571 0 0 1-.758 0l-1.483-1.495a.567.567 0 0 1-.088-.115 6.242 6.242 0 0 1-3.729 1.228 6.248 6.248 0 0 1-3.492-1.06l-1.43 1.442a.573.573 0 0 1-.758 0 .584.584 0 0 1 0-.763l1.36-1.342A6.375 6.375 0 0 1 5.5 13.114Zm10.507 0c0-2.354-1.861-4.262-4.196-4.262s-4.228 1.908-4.228 4.262a4.238 4.238 0 0 0 4.228 4.23c2.335 0 4.196-1.908 4.196-4.23Zm2.934-8.047c1.231 1.241 1.389 3.149.474 4.58L14.398 4.59a3.612 3.612 0 0 1 4.543.477Zm-13.882 0c-1.231 1.241-1.389 3.149-.474 4.58L9.602 4.59a3.612 3.612 0 0 0-4.543.477Z"/></svg>
